X:1
T:Nach Gsund und Freud steht mein Begier
T:Leonhard Lechner
T:Nach Gsund und Freud steht mein Begier
C:Leonhard Lechner
%%score [ 1 2 3 4 ]
L:1/8
Q:1/4=100
M:2/2
K:D
V:1 treble nm="Soprano" snm="S"
V:2 treble nm="Alto" snm="A"
V:3 treble-8 nm="Tenor" snm="T"
V:4 bass nm="Bass" snm="B"
V:1
"^Prima pars" z8 | z8 | B8 | E2 e3 ^d/c/ d2 | edcB A2 A2- | A2 A4 GF | G2 G2 F2 F2 | ^A2 B3 A A2 | %8
w: ||Nach|Gsund und _ _ _|Freud _ _ _ _ steht|_ mein _ _|_ Be- gier, Nach|Gsund und _ _|
 B2 F2 F3 F | F4 z2 B2 | F2 d3 =c/B/ c2 | B2 E2 G3 A | B=c B4 ^A2 | B4 z4 | z8 | z2 e4 d2- | %16
w: Freud steht mein Be-|gier, Nach|Gsund und _ _ _|Freud steht mein _|_ _ _ Be-|gier,||o Herr|
 dcBA/G/ F2 ^G2 | A2 B2 A4 | F4 ^G2 G2 | A2 B2 B2 AG | A2 A2 B4- | B4 A4 | z2 B2 A2 B2 | B8 | %24
w: _ _ _ _ _ _ mein|Gott, das klag|ich dir, ich|kann so gar _ _|_ nicht mei-|* den|der Welt Na-|tur|
 z2 E2 F4- | F2 F2 F2 F2- | F2 B4 d2- | d2 d4 B2 | A2 A2 ^G2 G2 | A4 z2 ^G2 | A4 z2 D2 | %31
w: und Ei-|* gen- schaft die|_ mich mit|_ Gwalt und|gan- zer Kraft, o|Herr, o|Herr, o|
 E2 G2 F2 d2 | d2 B2 =c2 c2 | B4 ^G2 G2 | A4 z2 ^G2 | A4 z2 D2 | E2 G2 F2 d2 | d2 B2 =c2 c2 | B8 | %39
w: Herr, von dir, o|Herr, von dir will|schei- den, o|Herr, o|Herr, o|Herr, von dir, o|Herr, von dir will|schei-|
 ^G8 ||"^Secunda pars" z4 ^G4- | G4 A4 | A4 ^G4 | A4 B2 B2 | B8 | z4 B4 | E2 A2 A2 B2- | %47
w: den.|Er-|* barm|dich mein,|gib mir dein|Gnad,|so|find ich Trost und|
 B2 A3 G G2- | GF F4 F2 | F8 | z8 | z2 G2 F4 | ^G4 A4 | B4 A4 | G4 F2 F2 | A2 G2 B4 | z2 E2 G2 F2 | %57
w: _ gu- * *|* * * ten|Rat,||sonst steht|mein Herz|in Sor-|* gen, denn|wahr- lich du,|denn wahr- lich|
 B2 B4 G2- | GA G4 F2 | G4 z2 B2 | A2 c2 d2 A2 | z2 A2 A2 G2 | F2 F2 F2 d2- | dc B4 ^A2 | %64
w: du al- lein|_ _ _ der|bist, der|al- ler Her- zen,|der al- ler|Her- zen ein Trö-|* * * ster|
 B4 z2 B2 | A2 E2 G4 | z2 A2 G2 D2 | E3 F GF B2- | BABc d2 =c2 | B4 B4 | z2 B2 A2 E2 | %71
w: ist, es|bleibt dir nichts,|es bleibt dir|nichts _ _ _ _|_ _ _ _ _ ver-|bor- gen,|es bleibt dir|
 G3 F/G/ A2 D2 | E8 | ^D8 ||"^Tertia pars" B8 | ^G8 | A4 B4 | z2 B4 ^A2- | A2 ^A2 B4 | z8 | %80
w: nichts _ _ _ ver-|bor-|gen.|O|Herr|mein Gott,|o Herr|_ mein Gott,||
 F4 A2 A2- | A2 G4 F2 | G2 G2 G2 F2 | E2 E2 E2 E2 | ^D4 z2 F2 | A2 A2 G4 | F2 B4 ^A2 | %87
w: rech'n nicht, rech'n|_ nicht mein|Schuld, al- lein gib|mir die Gnad und|Huld, die|dein Sohn hat|er- wor- ben,|
 z2 B2 ^G2 A2 | AGFE FG A2- | A2 A2 A2 A2 | ^G2 G2 A3 B | A4 B2 B2- | B2 A2 B4 | F3 G A2 B2 | %94
w: da er ver-|goß _ _ _ _ _ _|_ sein ed- les|Blut, mir Sün- di-|gen zu Heil|_ und Gut|wil- * * lig-|
 A2 G2 F4 | G2 F3 E E2- | E^D/C/ D2 E4 | z4 F3 G | A2 B2 A2 G2 | F4 G2 F2- | FE E3 ^D/C/ D2 | E8 |] %102
w: li- chen ist|ge- stor- * *|* * * * ben,|wil- *|* lig- li- chen|ist ge- stor-||ben.|
V:2
 B,8 | F4 G4- | G4 F3 G | AGGF/E/ F4 | E4 F3 F | E4 z4 | B,8 | F8 | F4 F,4 | z2 F2 B,2 G2 | %10
w: Nach|Gsund und|_ Freud _|_ _ _ _ _ _|steht mein Be-|gier,|Nach|Gsund|Nach Gsund|Nach Gsund und|
 A2 F2 E2 A2- | AG/F/ G2 E2 B,2 | G2 FE F2 F2 | D2 D2 E2 D2 | =C2 B,2 CB, B,2- | B,2 A,2 B,4- | %16
w: Freud steht mein Be-|* * * * gier, steht|mein _ _ _ Be-|gier, o Herr mein|Gott, das klag _ _|_ ich dir,|
 B,2 D2 D2 D2 | E2 G2 FE E2- | E2 ^D2 E2 E2 | F2 F2 F4- | F2 E2 G4 | G2 F2 E2 F2 | B,4 D4 | %23
w: _ o Herr mein|Gott, das klag _ _|_ ich dir, ich|kann so gar|_ nicht mei-|den der Welt Na-|tur der|
 G4 F2 G2 | EDCB, A,2 A,2 | B,2 D2 C4 | ^D4 E2 F2 | G2 G3 F G2 | E2 D2 E2 E2 | F4 z2 E2 | %30
w: _ Welt Na-|tur _ _ _ _ und|Ei- gen- schaft|die mich mit|Gwalt und _ _|gan- zer Kraft, o|Herr, o|
 F4 z2 G2 | G2 E2 D2 F2- | F2 E3 A, E2- | E^D/C/ D2 E2 E2 | F4 z2 E2 | F4 z2 G2 | G2 E2 D2 F2- | %37
w: Herr, o|Herr, von dir will|_ schei- * *|* * * * den, o|Herr, o|Herr, o|Herr, von dir will|
 F2 E3 A, E2- | E2 ^DC D4 | E8 || z4 E4- | E4 F4 | E2 E4 B,2 | CDEF G2 G2 | F8 | z4 ^G4 | %46
w: _ schei- * *||den.|Er-|* barm|dich mein, gib|mir _ _ _ _ dein|Gnad,|so|
 A2 E2 F2 G2- | G2 F3 E E2- | ED D4 CB, | C2 ^D2 D2 D2 | E2 F2 B,CDE | F2 E E2 ^D/C/ D2 | %52
w: find ich Trost und|_ gu- * *||* ten Rat, sonst|steht mein Herz _ _ _|_ in Sor- * * *|
 E2 E4 F2 | G2 G4 F2- | F2 E3 ^D/C/ D2 | E2 E4 D2- | D2 =C2 B,2 D2- | D E2 D E2 E2 | E4 D4 | %59
w: gen, sonst steht|mein Herz in|_ Sor- * * *|gen, denn wahr-|* lich du, denn|_ wahr- lich du al-|lein der|
 B,4 B,4 | C2 E2 F4 | E8 | D2 C4 F2- | FEED/E/ F2 F2 | ^D2 D2 E2 G2 | F2 z2 E4 | D2 A,2 z4 | %67
w: bist, der|al- ler Her-|zen|ein Trö- *|* * * * * * ster|ist, es bleibt dir|nichts, es|bleibt dir|
 z A G2 D2 FF | G2 GG F2 E2 | E3 F G2 G2 | F4 F2 z C | D2 E2 D4 | =C2 B,3 A,/G,/ A,2 | B,8 || %74
w: es bleibt dir nichts ver-|bor- gen, es bleibt dir|nichts _ _ ver-|bor- gen, es|bleibt dir nichts|ver- bor- * * *|gen.|
 z4 E4- | E4 E4- | E4 G4- | G4 F4 | z2 F2 E2 D2- | DCCB,/A,/ B,4 | D4 E4 | D4 D4 | B,2 E2 D2 D2 | %83
w: O|_ Herr|_ mein|_ Gott,|rech'n nicht mein|_ _ _ _ _ _|Schuld, rech'n|nicht mein|Schuld, al- lein gib|
 B,2 =C2 B,2 E,2 | F,2 F4 B,2 | C2 D4 E2 | (3D3 E F2 F4 | z2 F2 B,2 E2 | F2 D4 F2- | FE E4 ^D2 | %90
w: mir die Gnad und|Huld, die dein|Sohn hat er-|wor- * * ben,|da er ver-|goß sein ed-|* * * les|
 E2 E2 F3 F | F2 E2 G4 | F4 B,2 D2- | DE F4 G2 | E4 A,2 D2- | D2 D2 =C2 A,2 | z2 B,4 B,2 | %97
w: Blut, mir Sün- di-|gen zu Heil|und Gut wil-|* * * lig-|li- chen ist|_ ge- stor- ben,|wil- lig-|
 B,2 E,2 z4 | z2 G2 E2 E2 | A,2 D4 D2 | =C2 B,A, B,4 | B,8 |] %102
w: li- chen|wil- lig- li-|chen ist ge-|stor- * * *|ben.|
V:3
 z8 | B8 | E2 e3 ^d/c/ d2 | e4 z2 B2- | B2 c4 d2- | d2 =c2 B2 B2- | B2 e4 d2 | c2 d2 c2 c2 | %8
w: |Nach|Gsund und _ _ _|Freud steht|_ _ mein|_ Be- gier, Nach|_ Gsund und|Freud steht mein Be-|
 B2 d3 c/B/ c2 | d3 c d2 e2 | A2 A4 e2- | e2 B2 B2 e2- | e2 d4 c2 | B2 B2 B2 A2 | G4 G4 | %15
w: gier, Nach _ _ _|Gsund _ _ und|Freud steht mein|_ Be- gier, steht|_ mein Be-|gier, o Herr mein|Gott, das|
 F2 E2 F4 | F4 B2 B2 | A2 G2 A4 | B4 B2 B2 | d2 d2 d2 d2 | c4 d4 | z2 d2 c2 d2 | d4 z4 | %23
w: klag ich dir,|o Herr mein|Gott, das klag|ich dir, ich|kann so gar nicht|mei- den|der Welt Na-|tur|
 e4 ^d2 e2 | c4 c2 d2- | dc B4 ^A2 | B2 F2 ^G2 A2 | B4 z2 d2 | c2 A2 B4 | z2 d2 B4 | z2 d2 B4 | %31
w: der Welt Na-|tur und Ei-|* * * gen-|schaft die mich mit|Gwalt und|gan- zer Kraft,|o Herr,|o Herr,|
 B2 B4 B2 | A2 ^G2 A3 =G | F4 E4 | z2 d2 B4 | z2 d2 B4 | B2 B4 B2 | A2 ^G2 A3 E | G2 FE F4 | E8 || %40
w: o Herr, von|dir will schei- *|* den,|o Herr,|o Herr,|o Herr, von|dir will schei- *||den.|
 B8 | B4 d4 | =c4 B2 e2- | e2 c2 d2 e2- | e2 ^dc d4 | z4 e4 | c4 d4 | d4 B4 | B6 ^A^G | %49
w: Er-|barm _|dich mein, gib|_ mir dein Gnad,|_ _ _ _|so|find ich|Trost und|gu- * *|
 ^A2 B2 B2 z B | c2 d2 d2 B2 | d2 B2 z4 | B4 c2 d2 | GABc d2 D2 | E4 B4 | z2 E2 G2 F2 | A4 z2 A2 | %57
w: * ten Rat, sonst|steht mein Herz in|Sor- gen,|sonst steht mein|Herz _ _ _ _ in|Sor- gen,|denn wahr- lich|du, denn|
 G2 F2 G2 B2 | =c4 A4 | G2 d4 e2- | e2 A4 d2- | d2 c2 B2 B2- | B2 AG A4 | B3 c d2 c2 | %64
w: wahr- lich du al-|lein der|bist, der al-|* ler Her-|* zen ein Trö-||* * * ster|
 B2 z B c2 eB | d2 c2 B2 B2 | Bcdc e2 fd- | d c2 B2 d2 d | e4 A2 A2 | G2 E4 e2- | e2 d2 c4 | %71
w: ist, es bleibt dir es|bleibt dir nichts ver-|bor- * * * * gen, es|_ bleibt dir nichts ver-|bor- gen, es|bleibt dir nichts|_ ver- bor-|
 B2 B2 A2 B2 | G2 G2 E4 | F8 || z8 | B8 | c4 d4 | e2 e2 d2 cB | c2 c2 B2 B2- | B2 A4 ^G2 | A4 =c4 | %81
w: gen, es bleibt dir|nichts ver- bor-|gen.||O|Herr mein|Gott, o Herr _ _|_ mein Gott, rech'n|_ nicht mein|Schuld, rech'n|
 B4 A4 | G2 B2 B2 A2 | ^G2 A2 G2 A2 | B4 ^d4 | e2 f2 B2 B2- | B2 d4 c2 | z2 ^d2 e2 c2 | d2 B2 d4- | %89
w: nicht mein|Schuld, al- lein gib|mir die Gnad und|Huld, die|dein Sohn hat er-|* wor- ben,|da er ver-|goß sein ed-|
 d2 cB A2 A2 | B2 B2 d2 d2 | c2 c2 d2 e2 | c2 d4 B2 | d2 B2 f2 d2 | c2 B2 z d2 A | B2 B2 G2 E2 | %96
w: * * * * les|Blut, mir Sün- di-|gen zu Heil und|Gut wil- lig-|li- chen ist ge-|stor- ben, wil- lig-|li- chen ist ge-|
 F4 G2 G2- | GABc d2 B2 | f2 d2 c2 B2 | d2 AA B3 A | G2 FE F4 | E8 |] %102
w: stor- ben, wil-|* * * * * lig-|li- chen ist ge-|stor- ben, ge- stor- *||ben.|
V:4
 z8 | z4 E,4- | E,4 B,4 | =C4 B,3 A, | ^G,2 A,2 F,3 G, | A,2 A,2 E,4- | E,4 z4 | F,8 | %8
w: |Nach|_ Gsund|und Freud _|_ steht mein _|_ Be- gier,|_|Nach|
 B,,2 B,3 ^A,/G,/ A,2 | B,3 A, G,F, E,2 | D,4 A,,3 A,, | E,8 | z4 F,4 | G,6 F,2 | E,4 E,4 | %15
w: Gsund und _ _ _|Freud _ _ _ _|steht mein Be-|gier,|o|Herr mein|Gott, das|
 D,2 =C,2 B,,4- | B,,8 | z8 | z4 E,4 | D,2 B,,2 B,,C,D,E, | F,2 A,2 G,3 F, | E,2 B,,2 z4 | %22
w: klag ich dir,|_||ich|kann so gar _ _ _|_ nicht mei- *|* den|
 G,4 F,2 G,2 | E,2 z E, B,2 E,2 | A,3 G, F,E,D,C, | B,,2 B,,2 F,3 F, | B,,2 B,,2 E,2 D,2 | %27
w: der Welt Na-|tur der Welt Na-|tur _ _ _ _ _|_ und Ei- gen-|schaft die mich mit|
 G,3 A, B,2 G,2 | A,2 F,2 E,4 | z2 D,2 E,4 | z2 D,2 G,4 | E,4 B,,3 C, | D,2 E,2 A,,4 | B,,4 z4 | %34
w: Gwalt _ _ und|gan- zer Kraft,|o Herr,|o Herr,|von dir _|_ will schei-|den,|
 z2 D,2 E,4 | z2 D,2 G,4 | E,4 B,,3 C, | D,2 E,2 A,,4 | B,,8 | E,8 || z4 E,4- | E,4 D,4 | %42
w: o Herr,|o Herr,|von dir _|_ will schei-|den.|_|Er-|* barm|
 A,,4 E,4 | A,4 G,2 E,2 | B,8 | z4 E,4 | A,4 D,2 G,2- | G,2 D,2 E,3 D,/C,/ | B,,4 F,4- | %49
w: dich mein,|gib mir dein|Gnad,|so|find ich Trost|_ und gu- * *||
 F,2 B,,2 B,,2 B,2 | A,2 D,2 G,3 F,/E,/ | D,2 E,2 B,4 | E,4 z4 | z8 | z4 B,,4 | =C,4 B,,4 | %56
w: * ten Rat, sonst|steht mein Herz _ _|_ in Sor-|gen,||denn|wahr- lich|
 A,,3 A,, E,2 D,2 | B,,4 E,4 | =C,4 D,4 | G,,4 G,4 | A,4 D,4 | A,4 E,4 | F,4 F,4 | G,4 F,4 | %64
w: du, denn wahr- lich|du al-|lein der|bist, der|al- ler|Her- zen|ein Trö-|ster ist,|
 z2 B,2 A,2 E,2 | F,2 A,2 E,3 F, | G,2 F,2 z2 B,2 | A,2 E,2 B,4 | z2 E,2 D,2 A,,2 | %69
w: es bleibt dir|nichts ver- bor- *|* gen, es|bleibt dir nichts,|es bleibt dir|
 E,F,G,A, B,2 E,2 | B,4 F,2 A,2 | G,2 E,2 F,2 G,2 | E,3 D, =C,4 | B,,8 || z8 | E,8 | A,4 G,4 | %77
w: nichts _ _ _ _ ver-|bor- gen, es|bleibt dir nichts ver-|bor- * *|gen.||O|Herr mein|
 E,4 F,4- | F,4 G,4 | F,4 E,4 | D,3 C,/B,,/ A,,4 | z4 D,4 | E,3 F, G,2 D,2 | E,2 A,,2 E,2 =C,2 | %84
w: _ Gott,|_ rech'n|nicht mein|Schuld, _ _ _|al-|lein _ _ gib|mir die Gnad und|
 B,,4 B,4 | A,2 F,2 G,2 E,2 | B,4 F,4 | z2 B,,2 E,2 A,,2 | D,4 D,4 | A,4 F,4 | E,2 E,2 D,3 B,, | %91
w: Huld, die|dein Sohn hat er-|wor- ben,|da er ver-|goß sein|ed- les|Blut, mir Sün- di-|
 F,2 A,2 G,2 E,2 | F,4 G,3 A, | B,C D4 G,2 | A,2 E,2 D,4 | B,,4 =C,4 | B,,4 E,2 E,2- | %97
w: gen zu Heil und|Gut wil- *|* * * lig-|li- chen ist|ge- stor-|* ben, wil-|
 E,F,G,A, B,C D2- | D2 G,2 A,2 E,2 | D,4 B,,4 | =C,4 B,,4 | E,8 |] %102
w: |ist lig- li- chen|ist ge-|stor- *|ben.|

